images/decor/arrow_about.svg

<svg width="496" height="153" viewBox="0 0 496 153" fill="none" xmlns="http://www.w3.org/2000/svg">
<path d="M2.05359 108.738C35.794 108.738 69.2692 108.833 102.728 103.897C140.209 98.3668 177.73 90.3056 212.897 75.9315C226.821 70.2401 240.613 63.9038 253.975 56.9904C263.265 52.1837 275.342 46.5825 280.342 36.6863C288.325 20.8879 263.04 11.4578 252.659 7.68708C243.932 4.51708 234.227 1.72114 224.835 1.95305C213.075 2.24343 201.326 8.25507 191.559 14.3141C176.316 23.7696 161.854 43.7823 168.435 62.9594C176.215 85.6343 209.755 94.1997 230.898 92.0056C247.896 90.2417 264.795 84.3658 281.188 79.8325C301.754 74.1454 322.212 67.9692 343.182 63.8994C374.882 57.747 409.885 54.332 441.882 60.1394C461.247 63.654 487.225 74.2644 492.22 95.9066C495.392 109.655 484.517 124.702 475.722 134.118C474.44 135.491 460.617 150.59 459.272 145.821C456.706 136.722 455.784 126.683 454.854 117.292C454.848 117.229 454.051 112.657 455.089 115.6C458.068 124.038 460.947 132.559 463.549 141.121C464.202 143.269 464.661 148.11 465.852 150.286C466.986 152.356 474.469 148.032 475.252 147.56C482.662 143.096 486.996 134.981 494.429 130.734" stroke="#050505" stroke-width="3" stroke-linecap="round"/>
</svg>

<svg viewBox="0 0 496 153" fill="none" xmlns="http://www.w3.org/2000/svg"><path d="M2.05 108.74c33.74 0 67.22.1 100.68-4.84 37.48-5.53 75-13.6 110.17-27.97a507.34 507.34 0 0 0 41.07-18.94c9.3-4.8 21.37-10.4 26.37-20.3 7.99-15.8-17.3-25.23-27.68-29-8.73-3.17-18.43-5.97-27.82-5.74-11.77.3-23.51 6.3-33.28 12.36-15.24 9.46-29.7 29.47-23.13 48.65 7.78 22.67 41.32 31.24 62.47 29.05 17-1.77 33.9-7.64 50.29-12.18 20.56-5.68 41.02-11.86 62-15.93 31.7-6.15 66.7-9.57 98.7-3.76 19.36 3.51 45.34 14.12 50.33 35.77 3.17 13.75-7.7 28.8-16.5 38.2-1.28 1.38-15.1 16.48-16.45 11.71-2.56-9.1-3.49-19.14-4.42-28.53 0-.06-.8-4.63.24-1.69a607.24 607.24 0 0 1 8.46 25.52c.65 2.15 1.11 6.99 2.3 9.17 1.14 2.07 8.62-2.26 9.4-2.73 7.41-4.46 11.75-12.58 19.18-16.83" stroke="#050505" stroke-width="3" stroke-linecap="round"/></svg>
